X:1
T:Boil 'em Cabbage Down - Lute - G
C:Traditional American
Q:1/2=120
M:2/2
L:1/4
K:G
|: "II"dd/d/ dd & D4 | ee/e/ ee & E4 | dd/d/ dB & D4 | A4 & A,4 |
dd/d/ dd & D4 | ee/e/ ee & E4 | df/f/ af & D4 |1 g4 & G4 :|2 g3 & x3 ||
|: d & x | gg/g/ bd & G4 | g3d & G4 | gg/g/ fe & G4 |
d3d & D4 | gg/g/ gg & G4 | ee/e/ ee & E4 | df/f/ af & D4 | g3 & G4 :|

